; generated by PrusaSlicer 2.6.0+MacOS-arm64 on 2023-07-06 at 20:11:10 UTC


;
;
; 

; external perimeters extrusion width = 0.45mm
; perimeters extrusion width = 0.45mm
; infill extrusion width = 0.45mm
; solid infill extrusion width = 0.45mm
; top infill extrusion width = 0.40mm
; support material extrusion width = 0.35mm
; first layer extrusion width = 0.42mm

M73 P0 R12
M73 Q0 S12
M201 X1000 Y1000 Z200 E5000 ; sets maximum accelerations, mm/sec^2
M203 X200 Y200 Z12 E120 ; sets maximum feedrates, mm / sec
M204 S1250 T1250 ; sets acceleration (S) and retract acceleration (R), mm/sec^2
M205 X8.00 Y8.00 Z0.40 E4.50 ; sets the jerk limits, mm/sec
M205 S0 T0 ; sets the minimum extruding and travel feed rate, mm/sec
;TYPE:Custom
M862.3 P "MK3S" ; printer model check
M862.1 P0.4 ; nozzle diameter check
M115 U3.12.2 ; tell printer latest fw version
G90 ; use absolute coordinates
M83 ; extruder relative mode
M104 S215 ; set extruder temp
M140 S60 ; set bed temp
M190 S60 ; wait for bed temp
M109 S215 ; wait for extruder temp
G28 W ; home all without mesh bed level
G80 ; mesh bed leveling

G1 Z0.2 F720
G1 Y-3 F1000 ; go outside print area
G92 E0
G1 X60 E9 F1000 ; intro line
G1 X100 E12.5 F1000 ; intro line

G92 E0
M221 S95

; Don't change E values below. Excessive value can damage the printer.

M907 E538 ; set extruder motor current
G21 ; set units to millimeters
G90 ; use absolute coordinates
M83 ; use relative distances for extrusion
M900 K0.05 ; Filament gcode LA 1.5
M900 K30 ; Filament gcode LA 1.0
M107
;LAYER_CHANGE
;Z:0.2
;HEIGHT:0.2
;BEFORE_LAYER_CHANGE
G92 E0.0
;0.2


G1 E-.8 F2100
G1 Z.4 F720
;AFTER_LAYER_CHANGE
;0.2
G1 X83.762 Y88.146 F10800
G1 Z.2 F720
G1 E.8 F2100
M204 S800
;TYPE:Skirt/Brim
;WIDTH:0.42
G1 F1200
G1 X84.226 Y87.705 E.02007
G1 X85.521 Y87.381 E.04186
G1 X114.479 Y87.381 E.90796
G1 X115.896 Y87.774 E.04611
M73 P1 R12
M73 Q1 S12
G1 X116.909 Y88.84 E.04611
G1 X117.233 Y90.135 E.04186
G1 X117.233 Y109.865 E.61862
G1 X116.84 Y111.282 E.04611
G1 X115.774 Y112.295 E.04611
G1 X114.479 Y112.619 E.04186
G1 X85.521 Y112.619 E.90796
G1 X84.104 Y112.226 E.04611
G1 X83.091 Y111.16 E.04611
G1 X82.767 Y109.865 E.04186
G1 X82.767 Y90.135 E.61862
G1 X83.16 Y88.718 E.04611
G1 X83.718 Y88.187 E.02415
M204 S1000
G1 X83.959 Y88.474 F10800
M204 S800
G1 F1200
G1 X84.581 Y87.952 E.02546
G1 X85.521 Y87.758 E.03009
G1 X114.479 Y87.758 E.90796
G1 X115.786 Y88.15 E.04278
G1 X116.662 Y89.196 E.04278
G1 X116.856 Y90.135 E.03006
G1 X116.856 Y109.865 E.61862
G1 X116.464 Y111.172 E.04278
M73 P2 R12
M73 Q2 S12
G1 X115.419 Y112.048 E.04275
G1 X114.479 Y112.242 E.03009
G1 X85.521 Y112.242 E.90796
G1 X84.214 Y111.85 E.04278
G1 X83.338 Y110.804 E.04278
G1 X83.144 Y109.865 E.03006
G1 X83.144 Y90.135 E.61862
G1 X83.536 Y88.828 E.04278
G1 X83.913 Y88.512 E.01542
M204 S1000
; printing object 2x8 Block.stl id:0 copy 0
;WIPE_START
G1 F8640
G1 X84.581 Y87.952 E-.20127
G1 X85.521 Y87.758 E-.22162
G1 X87.154 Y87.758 E-.37711
;WIPE_END
G1 Z.6 F720
G1 X110.328 Y104.328 F10800
G1 Z.2 F720
G1 E.8 F2100
M204 S800
;TYPE:Support material
G1 F1200
G1 X89.673 Y104.328 E.64762
G1 X89.673 Y95.673 E.27137
G1 X110.328 Y95.672 E.64762
G1 X110.328 Y104.271 E.26962
M204 S1000
G1 X109.636 Y104.158 F10800
M204 S800
G1 F1200
G1 X109.636 Y96.012 E.25541
G1 X109.217 Y96.012 E.01314
G1 X109.217 Y103.988 E.25008
G1 X108.799 Y103.988 E.01311
M73 P3 R12
M73 Q3 S12
G1 X108.799 Y96.012 E.25008
G1 X108.38 Y96.012 E.01314
G1 X108.38 Y103.988 E.25008
G1 X107.961 Y103.988 E.01314
G1 X107.961 Y96.012 E.25008
G1 X107.542 Y96.012 E.01314
G1 X107.542 Y103.988 E.25008
G1 X107.123 Y103.988 E.01314
G1 X107.123 Y96.012 E.25008
G1 X106.704 Y96.012 E.01314
G1 X106.704 Y103.988 E.25008
G1 X106.285 Y103.988 E.01314
G1 X106.285 Y96.012 E.25008
G1 X105.866 Y96.012 E.01314
G1 X105.866 Y103.988 E.25008
G1 X105.447 Y103.988 E.01314
G1 X105.447 Y96.012 E.25008
G1 X105.028 Y96.012 E.01314
G1 X105.028 Y103.988 E.25008
G1 X104.609 Y103.988 E.01314
G1 X104.609 Y96.012 E.25008
G1 X104.19 Y96.012 E.01314
G1 X104.19 Y103.988 E.25008
G1 X103.771 Y103.988 E.01314
G1 X103.771 Y96.012 E.25008
G1 X103.352 Y96.012 E.01314
G1 X103.352 Y103.988 E.25008
G1 X102.933 Y103.988 E.01314
G1 X102.933 Y96.012 E.25008
G1 X102.514 Y96.012 E.01314
G1 X102.514 Y103.988 E.25008
G1 X102.095 Y103.988 E.01314
G1 X102.095 Y96.012 E.25008
G1 X101.676 Y96.012 E.01314
G1 X101.676 Y103.988 E.25008
M73 Q4 S12
G1 X101.257 Y103.988 E.01314
M73 P4 R12
G1 X101.257 Y96.012 E.25008
G1 X100.838 Y96.012 E.01314
G1 X100.838 Y103.988 E.25008
G1 X100.419 Y103.988 E.01314
G1 X100.419 Y96.012 E.25008
G1 X100 Y96.012 E.01314
G1 X100 Y103.988 E.25008
G1 X99.581 Y103.988 E.01314
G1 X99.581 Y96.012 E.25008
G1 X99.162 Y96.012 E.01314
G1 X99.162 Y103.988 E.25008
G1 X98.743 Y103.988 E.01314
G1 X98.743 Y96.012 E.25008
G1 X98.324 Y96.012 E.01314
G1 X98.324 Y103.988 E.25008
G1 X97.905 Y103.988 E.01314
G1 X97.905 Y96.012 E.25008
G1 X97.486 Y96.012 E.01314
G1 X97.486 Y103.988 E.25008
G1 X97.067 Y103.988 E.01314
G1 X97.067 Y96.012 E.25008
G1 X96.648 Y96.012 E.01314
G1 X96.648 Y103.988 E.25008
G1 X96.229 Y103.988 E.01314
G1 X96.229 Y96.012 E.25008
G1 X95.81 Y96.012 E.01314
G1 X95.81 Y103.988 E.25008
G1 X95.391 Y103.988 E.01314
G1 X95.391 Y96.012 E.25008
G1 X94.972 Y96.012 E.01314
G1 X94.972 Y103.988 E.25008
G1 X94.553 Y103.988 E.01314
G1 X94.553 Y96.012 E.25008
G1 X94.134 Y96.012 E.01314
M73 P5 R12
M73 Q5 S12
G1 X94.134 Y103.988 E.25008
G1 X93.715 Y103.988 E.01314
G1 X93.715 Y96.012 E.25008
G1 X93.296 Y96.012 E.01314
G1 X93.296 Y103.988 E.25008
G1 X92.877 Y103.988 E.01314
G1 X92.877 Y96.012 E.25008
G1 X92.458 Y96.012 E.01314
G1 X92.458 Y103.988 E.25008
G1 X92.039 Y103.988 E.01314
G1 X92.039 Y96.012 E.25008
G1 X91.62 Y96.012 E.01314
G1 X91.62 Y103.988 E.25008
G1 X91.201 Y103.988 E.01314
G1 X91.201 Y96.012 E.25008
G1 X90.783 Y96.012 E.01311
G1 X90.783 Y103.988 E.25008
G1 X90.364 Y103.988 E.01314
G1 X90.364 Y95.842 E.25541
M204 S1000
;WIPE_START
G1 F8640
G1 X90.364 Y99.307 E-.8
;WIPE_END
G1 Z.6 F720
G1 X114.479 Y99.662 F10800
G1 Z.2 F720
G1 E.8 F2100
M204 S800
G1 F1200
G1 X112.405 Y97.588 E.09196
G1 X112.405 Y93.876 E.11639
G1 X112.124 Y93.595 E.01246
M73 P5 R11
G1 X87.876 Y93.595 E.76028
G1 X87.595 Y93.876 E.01246
G1 X87.595 Y97.588 E.11639
G1 X85.521 Y99.662 E.09196
G1 X85.521 Y90.135 E.29871
G1 X114.479 Y90.135 E.90796
G1 X114.479 Y99.606 E.29696
M204 S1000
M73 P6 R11
M73 Q6 S12
G1 X113.826 Y98.77 F10800
M204 S800
G1 F1200
G1 X113.826 Y90.475 E.26008
G1 X113.407 Y90.475 E.01314
G1 X113.407 Y98.111 E.23942
G1 X112.988 Y97.692 E.01858
G1 X112.988 Y90.475 E.22628
G1 X112.569 Y90.475 E.01314
G1 X112.569 Y93.561 E.09676
G1 X112.264 Y93.256 E.01352
G1 X112.15 Y93.256 E.00357
M73 Q6 S11
G1 X112.15 Y90.475 E.0872
G1 X111.731 Y90.475 E.01314
G1 X111.731 Y93.256 E.0872
G1 X111.312 Y93.256 E.01314
G1 X111.312 Y90.475 E.0872
G1 X110.893 Y90.475 E.01314
G1 X110.893 Y93.256 E.0872
G1 X110.474 Y93.256 E.01314
G1 X110.474 Y90.475 E.0872
G1 X110.055 Y90.475 E.01314
G1 X110.055 Y93.256 E.0872
G1 X109.636 Y93.256 E.01314
G1 X109.636 Y90.475 E.0872
G1 X109.217 Y90.475 E.01314
G1 X109.217 Y93.256 E.0872
G1 X108.799 Y93.256 E.01311
G1 X108.799 Y90.475 E.0872
G1 X108.38 Y90.475 E.01314
G1 X108.38 Y93.256 E.0872
G1 X107.961 Y93.256 E.01314
G1 X107.961 Y90.475 E.0872
G1 X107.542 Y90.475 E.01314
G1 X107.542 Y93.256 E.0872
G1 X107.123 Y93.256 E.01314
G1 X107.123 Y90.475 E.0872
G1 X106.704 Y90.475 E.01314
G1 X106.704 Y93.256 E.0872
G1 X106.285 Y93.256 E.01314
G1 X106.285 Y90.475 E.0872
G1 X105.866 Y90.475 E.01314
G1 X105.866 Y93.256 E.0872
G1 X105.447 Y93.256 E.01314
G1 X105.447 Y90.475 E.0872
G1 X105.028 Y90.475 E.01314
G1 X105.028 Y93.256 E.0872
G1 X104.609 Y93.256 E.01314
G1 X104.609 Y90.475 E.0872
G1 X104.19 Y90.475 E.01314
G1 X104.19 Y93.256 E.0872
G1 X103.771 Y93.256 E.01314
G1 X103.771 Y90.475 E.0872
G1 X103.352 Y90.475 E.01314
G1 X103.352 Y93.256 E.0872
G1 X102.933 Y93.256 E.01314
G1 X102.933 Y90.475 E.0872
G1 X102.514 Y90.475 E.01314
G1 X102.514 Y93.256 E.0872
G1 X102.095 Y93.256 E.01314
M73 P7 R11
G1 X102.095 Y90.475 E.0872
M73 Q7 S11
G1 X101.676 Y90.475 E.01314
G1 X101.676 Y93.256 E.0872
G1 X101.257 Y93.256 E.01314
G1 X101.257 Y90.475 E.0872
G1 X100.838 Y90.475 E.01314
G1 X100.838 Y93.256 E.0872
G1 X100.419 Y93.256 E.01314
G1 X100.419 Y90.475 E.0872
G1 X100 Y90.475 E.01314
G1 X100 Y93.256 E.0872
G1 X99.581 Y93.256 E.01314
G1 X99.581 Y90.475 E.0872
G1 X99.162 Y90.475 E.01314
G1 X99.162 Y93.256 E.0872
G1 X98.743 Y93.256 E.01314
G1 X98.743 Y90.475 E.0872
G1 X98.324 Y90.475 E.01314
G1 X98.324 Y93.256 E.0872
G1 X97.905 Y93.256 E.01314
G1 X97.905 Y90.475 E.0872
G1 X97.486 Y90.475 E.01314
G1 X97.486 Y93.256 E.0872
G1 X97.067 Y93.256 E.01314
G1 X97.067 Y90.475 E.0872
G1 X96.648 Y90.475 E.01314
G1 X96.648 Y93.256 E.0872
G1 X96.229 Y93.256 E.01314
G1 X96.229 Y90.475 E.0872
G1 X95.81 Y90.475 E.01314
G1 X95.81 Y93.256 E.0872
G1 X95.391 Y93.256 E.01314
G1 X95.391 Y90.475 E.0872
G1 X94.972 Y90.475 E.01314
G1 X94.972 Y93.256 E.0872
G1 X94.553 Y93.256 E.01314
G1 X94.553 Y90.475 E.0872
G1 X94.134 Y90.475 E.01314
G1 X94.134 Y93.256 E.0872
G1 X93.715 Y93.256 E.01314
G1 X93.715 Y90.475 E.0872
G1 X93.296 Y90.475 E.01314
G1 X93.296 Y93.256 E.0872
G1 X92.877 Y93.256 E.01314
G1 X92.877 Y90.475 E.0872
G1 X92.458 Y90.475 E.01314
G1 X92.458 Y93.256 E.0872
G1 X92.039 Y93.256 E.01314
G1 X92.039 Y90.475 E.0872
G1 X91.62 Y90.475 E.01314
G1 X91.62 Y93.256 E.0872
G1 X91.201 Y93.256 E.01314
G1 X91.201 Y90.475 E.0872
G1 X90.783 Y90.475 E.01311
G1 X90.783 Y93.256 E.0872
G1 X90.364 Y93.256 E.01314
G1 X90.364 Y90.475 E.0872
G1 X89.945 Y90.475 E.01314
G1 X89.945 Y93.256 E.0872
G1 X89.526 Y93.256 E.01314
G1 X89.526 Y90.475 E.0872
G1 X89.107 Y90.475 E.01314
G1 X89.107 Y93.256 E.0872
G1 X88.688 Y93.256 E.01314
G1 X88.688 Y90.475 E.0872
G1 X88.269 Y90.475 E.01314
G1 X88.269 Y93.256 E.0872
G1 X87.85 Y93.256 E.01314
G1 X87.85 Y90.475 E.0872
G1 X87.431 Y90.475 E.01314
G1 X87.431 Y93.561 E.09676
G1 X87.256 Y93.736 E.00776
G1 X87.256 Y97.448 E.11639
G1 X87.012 Y97.692 E.01082
G1 X87.012 Y90.475 E.22628
G1 X86.593 Y90.475 E.01314
G1 X86.593 Y98.111 E.23942
G1 X86.174 Y98.53 E.01858
G1 X86.174 Y90.305 E.25789
M204 S1000
;WIPE_START
G1 F8640
M73 P8 R11
M73 Q8 S11
G1 X86.174 Y93.77 E-.8
;WIPE_END
G1 Z.6 F720
G1 X114.479 Y109.865 F10800
G1 Z.2 F720
G1 E.8 F2100
M204 S800
G1 F1200
G1 X85.521 Y109.865 E.90796
G1 X85.521 Y100.338 E.29871
G1 X87.595 Y102.412 E.09196
G1 X87.595 Y106.124 E.11639
G1 X87.876 Y106.405 E.01246
G1 X112.124 Y106.405 E.76028
G1 X112.405 Y106.124 E.01246
G1 X112.405 Y102.412 E.11639
G1 X114.479 Y100.338 E.09196
G1 X114.479 Y109.808 E.29693
M204 S1000
G1 X113.826 Y109.695 F10800
M204 S800
G1 F1200
G1 X113.826 Y101.47 E.25789
G1 X113.407 Y101.889 E.01858
G1 X113.407 Y109.525 E.23942
G1 X112.988 Y109.525 E.01314
G1 X112.988 Y102.308 E.22628
G1 X112.744 Y102.552 E.01082
G1 X112.744 Y106.264 E.11639
G1 X112.569 Y106.439 E.00776
G1 X112.569 Y109.525 E.09676
G1 X112.15 Y109.525 E.01314
G1 X112.15 Y106.744 E.0872
G1 X111.731 Y106.744 E.01314
G1 X111.731 Y109.525 E.0872
G1 X111.312 Y109.525 E.01314
G1 X111.312 Y106.744 E.0872
G1 X110.893 Y106.744 E.01314
G1 X110.893 Y109.525 E.0872
G1 X110.474 Y109.525 E.01314
M73 P9 R11
G1 X110.474 Y106.744 E.0872
G1 X110.055 Y106.744 E.01314
M73 Q9 S11
G1 X110.055 Y109.525 E.0872
G1 X109.636 Y109.525 E.01314
G1 X109.636 Y106.744 E.0872
G1 X109.217 Y106.744 E.01314
G1 X109.217 Y109.525 E.0872
G1 X108.799 Y109.525 E.01311
G1 X108.799 Y106.744 E.0872
G1 X108.38 Y106.744 E.01314
G1 X108.38 Y109.525 E.0872
G1 X107.961 Y109.525 E.01314
G1 X107.961 Y106.744 E.0872
G1 X107.542 Y106.744 E.01314
G1 X107.542 Y109.525 E.0872
G1 X107.123 Y109.525 E.01314
G1 X107.123 Y106.744 E.0872
G1 X106.704 Y106.744 E.01314
G1 X106.704 Y109.525 E.0872
G1 X106.285 Y109.525 E.01314
G1 X106.285 Y106.744 E.0872
G1 X105.866 Y106.744 E.01314
G1 X105.866 Y109.525 E.0872
G1 X105.447 Y109.525 E.01314
G1 X105.447 Y106.744 E.0872
G1 X105.028 Y106.744 E.01314
G1 X105.028 Y109.525 E.0872
G1 X104.609 Y109.525 E.01314
G1 X104.609 Y106.744 E.0872
G1 X104.19 Y106.744 E.01314
G1 X104.19 Y109.525 E.0872
G1 X103.771 Y109.525 E.01314
G1 X103.771 Y106.744 E.0872
G1 X103.352 Y106.744 E.01314
G1 X103.352 Y109.525 E.0872
G1 X102.933 Y109.525 E.01314
G1 X102.933 Y106.744 E.0872
G1 X102.514 Y106.744 E.01314
G1 X102.514 Y109.525 E.0872
G1 X102.095 Y109.525 E.01314
G1 X102.095 Y106.744 E.0872
G1 X101.676 Y106.744 E.01314
G1 X101.676 Y109.525 E.0872
G1 X101.257 Y109.525 E.01314
G1 X101.257 Y106.744 E.0872
G1 X100.838 Y106.744 E.01314
G1 X100.838 Y109.525 E.0872
G1 X100.419 Y109.525 E.01314
G1 X100.419 Y106.744 E.0872
G1 X100 Y106.744 E.01314
G1 X100 Y109.525 E.0872
G1 X99.581 Y109.525 E.01314
G1 X99.581 Y106.744 E.0872
G1 X99.162 Y106.744 E.01314
G1 X99.162 Y109.525 E.0872
G1 X98.743 Y109.525 E.01314
G1 X98.743 Y106.744 E.0872
G1 X98.324 Y106.744 E.01314
G1 X98.324 Y109.525 E.0872
G1 X97.905 Y109.525 E.01314
G1 X97.905 Y106.744 E.0872
G1 X97.486 Y106.744 E.01314
G1 X97.486 Y109.525 E.0872
G1 X97.067 Y109.525 E.01314
G1 X97.067 Y106.744 E.0872
G1 X96.648 Y106.744 E.01314
G1 X96.648 Y109.525 E.0872
G1 X96.229 Y109.525 E.01314
G1 X96.229 Y106.744 E.0872
G1 X95.81 Y106.744 E.01314
G1 X95.81 Y109.525 E.0872
G1 X95.391 Y109.525 E.01314
G1 X95.391 Y106.744 E.0872
G1 X94.972 Y106.744 E.01314
G1 X94.972 Y109.525 E.0872
G1 X94.553 Y109.525 E.01314
G1 X94.553 Y106.744 E.0872
G1 X94.134 Y106.744 E.01314
G1 X94.134 Y109.525 E.0872
G1 X93.715 Y109.525 E.01314
G1 X93.715 Y106.744 E.0872
G1 X93.296 Y106.744 E.01314
G1 X93.296 Y109.525 E.0872
G1 X92.877 Y109.525 E.01314
G1 X92.877 Y106.744 E.0872
G1 X92.458 Y106.744 E.01314
M73 P10 R11
G1 X92.458 Y109.525 E.0872
G1 X92.039 Y109.525 E.01314
M73 Q10 S11
G1 X92.039 Y106.744 E.0872
G1 X91.62 Y106.744 E.01314
G1 X91.62 Y109.525 E.0872
G1 X91.201 Y109.525 E.01314
G1 X91.201 Y106.744 E.0872
G1 X90.783 Y106.744 E.01311
G1 X90.783 Y109.525 E.0872
G1 X90.364 Y109.525 E.01314
G1 X90.364 Y106.744 E.0872
G1 X89.945 Y106.744 E.01314
G1 X89.945 Y109.525 E.0872
G1 X89.526 Y109.525 E.01314
G1 X89.526 Y106.744 E.0872
G1 X89.107 Y106.744 E.01314
G1 X89.107 Y109.525 E.0872
G1 X88.688 Y109.525 E.01314
G1 X88.688 Y106.744 E.0872
G1 X88.269 Y106.744 E.01314
G1 X88.269 Y109.525 E.0872
G1 X87.85 Y109.525 E.01314
G1 X87.85 Y106.744 E.0872
G1 X87.736 Y106.744 E.00357
G1 X87.431 Y106.439 E.01352
G1 X87.431 Y109.525 E.09676
G1 X87.012 Y109.525 E.01314
G1 X87.012 Y102.308 E.22628
G1 X86.593 Y101.889 E.01858
G1 X86.593 Y109.525 E.23942
G1 X86.174 Y109.525 E.01314
G1 X86.174 Y101.23 E.26008
M204 S1000
;WIPE_START
G1 F8640
G1 X86.174 Y104.695 E-.8
;WIPE_END
G1 Z.6 F720
G1 X88.498 Y94.498 F10800
G1 Z.2 F720
G1 E.8 F2100
M204 S800
;TYPE:External perimeter
;WIDTH:0.471976
G1 F1200
G1 X88.752 Y94.477 E.00909
;WIDTH:0.442466
G1 X89.006 Y94.456 E.00847
;WIDTH:0.419999
G1 X110.924 Y94.448 E.68722
;WIDTH:0.418291
G1 X110.996 Y94.45 E.00225
;WIDTH:0.445245
G1 X111.249 Y94.473 E.0085
;WIDTH:0.473387
G1 X111.501 Y94.496 E.00906
G1 X111.523 Y94.751 E.00916
;WIDTH:0.443202
G1 X111.544 Y95.006 E.00852
;WIDTH:0.42
G1 X111.555 Y95.561 E.01741
G1 X111.544 Y105.003 E.29605
;WIDTH:0.442466
G1 X111.523 Y105.253 E.00833
;WIDTH:0.471976
G1 X111.502 Y105.502 E.00891
G1 X111.253 Y105.523 E.00891
;WIDTH:0.442437
G1 X111.003 Y105.544 E.00833
;WIDTH:0.419999
G1 X88.997 Y105.544 E.68998
;WIDTH:0.442437
G1 X88.747 Y105.523 E.00833
;WIDTH:0.471976
G1 X88.498 Y105.502 E.00891
G1 X88.477 Y105.253 E.00891
;WIDTH:0.442468
G1 X88.456 Y105.003 E.00833
;WIDTH:0.42
G1 X88.456 Y94.997 E.31373
;WIDTH:0.442468
G1 X88.477 Y94.747 E.00833
;WIDTH:0.471976
G1 X88.493 Y94.558 E.00677
M204 S1000
;WIPE_START
G1 F8640
G1 X88.752 Y94.477 E-.06266
G1 X89.006 Y94.456 E-.05885
M73 P11 R11
G1 X91.944 Y94.455 E-.67849
;WIPE_END
G1 Z.6 F720
G1 X111.174 Y95.011 F10800
G1 Z.2 F720
M73 Q11 S11
G1 E.8 F2100
M204 S800
;WIDTH:0.42
G1 F1200
G1 X111.174 Y104.989 E.31285
;WIDTH:0.442497
G1 X111.158 Y105.065 E.00258
;WIDTH:0.471976
G1 X111.141 Y105.141 E.00278
G1 X111.065 Y105.158 E.00278
;WIDTH:0.442466
G1 X110.989 Y105.174 E.00258
;WIDTH:0.419998
